X:1
T:Title
%%score { ( 1 3 ) | ( 2 4 ) }
L:1/8
Q:1/4=100
M:4/4
K:F
V:1 treble nm="Grand Piano"
V:3 treble 
V:2 bass 
V:4 bass 
V:1
 c3 c B2 A2 | G4 C2 z2 | F2 [EG]2 [FA]2 [_Ad]2 | [CAc]6 z2 | [CFA]3 [CFA] [B,FB]2 [CFA]2 | %5
w: Hubert~P.~Main * * *|||||
 [DFG]4 [Fd]2 z2 | z4 G4 | [A,F]6 z2 |] %8
w: |||
V:2
 [F,A,F]3 [F,A,F] [F,DF]2 [F,CF]2 | [E,C]4 [E,G,]2 z2 | [D,A,D]2 [C,C]2 [F,C]2 [F,=B,]2 | F,6 z2 | %4
 F,3 _E, D,2 C,2 | B,,4 [B,,G,]2 z2 | [C,A,]2 D,2 B,,2 z A | F,6 z2 |] %8
V:3
 x8 | x8 | x8 | x8 | x8 | x8 | [Fc]2 [A,F]2 [DF]2 [B,E]2 | x8 |] %8
V:4
 x8 | x8 | x8 | x8 | x8 | x8 | z4 z2 C,2 | x8 |] %8

